X:1
T:Someone to Watch Over Me
C:George Gershwin
M:4/4
L:1/8
Q:1/4=63
K:G
D2|G2A2B2c2|B2A2G4|A2B2c2d2|B6D2|
G2A2B2c2|B2A2G2E2|D6D2|G8|
B2c2d4|d2c2B4|c2B2A2G2|A6D2|
G2A2B2c2|B2A2G2E2|D6D2|G8|]
